X: 1
T: Lucky Scaup
C: Jimmy Shand
R: reel
S: http://nigelgatherer.com/tunes/abc/abc7/lucks.abc	 20110323 013453 UT
S: printed MS from Mike Briggs
N: Chords added by John Chambers <jc:trillian.mit.edu>
N: Also played with the 2nd part returning to the 2st part's ending.
M: C|
L: 1/8
K: D
   z2 | "D"D2DF "A7"E2EG | "D"F2FA  "G"G2GB | "D"A2f2 "Em"gfed | "A7"f2e2 e2f2 |
   y4 | "D"D2DF "A7"E2EG | "D"F2FA  "G"G2GB | "D"A2a2 "A7"gfed | "D"f2d2  d2  :|
|: fg | "D"a2d2  "G"b2d2 | "D"a2gf "A7"g2fg | "D"a2d2 "Em"bagf | "A7"g2e2 e2fg |
   y4 | "D"a2d2  "G"b2d2 | "D"a2gf "A7"g2fe | "D"A2a2 "A7"gfed | "D"f2d2  d2  :|

%%sep 1 1 500

